X:1
T:Title
%%score { ( 1 4 ) | ( 2 3 ) }
L:1/8
M:4/4
K:G
V:1 treble nm="Grand Piano"
V:4 treble 
V:2 treble 
V:3 treble 
V:1
 z4 z2[Q:1/4=100] GA | B2 GD EGFA | G6 GB | [Bd]2 [Ac]B Ad^ce |[M:3/4] [Fd]6 |[M:1/4] Bc | %6
[M:4/4] d2 cB .[CEB]2 [A,EA][EB] | [Ec]6 E2 | D2 GB BAEF |[M:3/4] [B,G]6 |[M:1/4] [DF][EG] | %11
[M:4/4] [FA]2 [Fd]2 [Fd]2 [FB]>[FA] | G2 G>A B3 B | A2 AA A e2 e |[M:7/8] d-d-d- d- d3 | %15
[M:1/4] z A |[M:4/4] B2 d2 d2 B>A |[M:9/8] G2 G- G/A/ B2- BDD | %18
[M:4/4] E [CEG]3 [A,DF] [CFA]2 [CFA] |[M:3/4] [G,B,DG]6 |] %20
V:2
 z4 z2 [G,D]-[G,CD] | [G,DG]2 [G,B,D][G,B,][K:bass] C,-[C,CE][D,A,D][D,CD] | %2
 [G,B,D]6[K:treble] [B,D][DG] | [G,D]2 [G,D][G,DG] [A,DF]2 [A,E][A,G] |[M:3/4] [D,A,]6 | %5
[M:1/4] [G,G]2 |[M:4/4] [G,B,G]2[K:bass] [F,A,D][G,D] z AC,[B,,^G,] | [A,,A,]6 [C,G,C]2 | %8
 [D,G,B,]2 [D,G,B,][D,G,D] [D,F,C]2 [D,A,C][D,A,C] |[M:3/4] [G,,G,]6 |[M:1/4] [D,A,]2 | %11
[M:4/4] [D,D]2 [D,A,]2 [D,A,]2 [D,D]>[D,C] | [G,B,D]2 [G,B,D]>[G,CD] [G,DG]3 [G,DG] | %13
 [A,DF]2 [A,DF][A,DF] [A,^CG] [A,CG]2 [A,CG] |[M:7/8][K:bass] A,A, B,2 C3 |[M:1/4] B,[K:treble]C | %16
[M:4/4] [G,DG]2 [G,B,G]2 [G,B,G]2 [G,DG]>[G,CD] | %17
[M:9/8] [G,B,D]2 [G,B,D]- [G,B,D]/[G,CD]/ [G,DG]2- [G,DG][K:bass][B,,G,][B,,G,] | %18
[M:4/4] [C,G,C] C,3 D, D,2 D, |[M:3/4] G,,6 |] %20
V:3
 z4 z2 .B,2 | z4[K:bass] .[G,C]2 z2 | z4 z2[K:treble] G,2 | x8 |[M:3/4] x6 |[M:1/4] z A, | %6
[M:4/4] z4[K:bass] C,2 z2 | x8 | x8 |[M:3/4] x6 |[M:1/4] x2 |[M:4/4] x8 | x8 | x8 | %14
[M:7/8][K:bass] D,-D,-D,- D,- D,3 |[M:1/4] G,2[K:treble] |[M:4/4] x8 |[M:9/8] x7[K:bass] x2 | %18
[M:4/4] x8 |[M:3/4] x6 |] %20
V:4
 x8 | x8 | x8 | x8 |[M:3/4] x6 |[M:1/4] x2 |[M:4/4] x8 | x8 | x8 |[M:3/4] x6 |[M:1/4] x2 | %11
[M:4/4] x8 | x8 | x8 |[M:7/8] FF G2 A3 |[M:1/4] G2 |[M:4/4] x8 |[M:9/8] x9 |[M:4/4] x8 | %19
[M:3/4] x6 |] %20

